!!!COM: Bach, Johann Sebastian
!!!CDT: 1685/3//-1750/7/28/
!!!OTL@@DE: O wie selig seid ihr doch, ihr Frommen
!!!AGN: 4-Part Chorale
!!!SCT: BH 213
!!!SCT: BWV 405
**harm	**root	**kern	**kern	**kern	**kern
!	!	!bass	!tenor	!alto	!soprno
*	*Iorgan	*Iorgan	*Iorgan	*Iorgan	*Iorgan
*	*	*clefF4	*clefF4	*clefG2	*clefG2
*M4/4	*M4/4	*M4/4	*M4/4	*M4/4	*M4/4
*met(c)	*met(c)	*met(c)	*met(c)	*met(c)	*met(c)
*MM60	*MM60	*MM60	*MM60	*MM60	*MM60
*k[b-e-]	*k[b-e-]	*k[b-e-]	*k[b-e-]	*k[b-e-]	*k[b-e-]
*g:	*g:	*g:	*g:	*g:	*g:
=1-	=1-	=1-	=1-	=1-	=1-
i	4DD	4G	4g	4b-	4dd
ivb	4GG	8F	4g	4cc	4gg
.	.	8E-	.	.	.
v7	4AA	4D	4a	4cc	4ff
i	4DD	4G	4g	[4b-	8ee-
.	.	.	.	.	8dd
=2	=2	=2	=2	=2	=2
iv7	8GG	4C	8g	8b-]	4ee-
iiob	8EE	.	8e-	8a	.
IIIb	4FF	8D	4f	[4b-	4dd
.	.	8E-	.	.	.
-VII	4CC	4F	4f	8b-]	4cc
.	.	.	.	8a	.
III	4FF	4B-	4f	4b-	8dd
.	.	.	.	.	8ee-
=3	=3	=3	=3	=3	=3
V7b/-VII	4GG	4E-	8g	4b-	2cc
.	.	.	8e-	.	.
-VII	4CC	4F	8c	4a	.
.	.	.	8f	.	.
III;	2FF;	2BB-;	2d;	2f;	2b-;
=4	=4	=4	=4	=4	=4
III	4FF	4B-	8f	4b-	8dd
.	.	.	8g	.	8ee-
-VII	4CC	8A	8a	8cc	4ff
.	.	8B	8g	8dd	.
IV	4GG	8c	4g	4cc	4.ee
.	.	8B-	.	.	.
viiob	4CC#	4A	4a	4cc	.
.	.	.	.	.	8ff#
=5	=5	=5	=5	=5	=5
Ib	8DD	8B	8g	8dd	4gg
viio/V	8GG#	8c#	8e	8ee	.
v	4AA	4d	4a	4dd	8ff
.	.	.	.	.	8gg
vb	4AA	4F	4a	4dd	4aa
i	4DD	4G	4b-	4dd	8gg
.	.	.	.	.	8ff
!!linebreak: 2
=6	=6	=6	=6	=6	=6
V7/V	2EE	4A	8e	4dd	2ee
.	.	.	4a	.	.
.	.	4AA	.	4cc#	.
.	.	.	8g	.	.
V;	2AA;	2D;	2f#;	2a;	2dd;
=7	=7	=7	=7	=7	=7
r	4r	4r	4r	4r	4r
V	4AA	4D	4A	4f#	4dd
IVb	4GG	4E	4G	4g	4cc
Vb	4AA	4F#	4d	4a	4a
=8	=8	=8	=8	=8	=8
i	2DD	4G	2d	4a	2b-
.	.	4GG	.	4g	.
V;	2AA;	2D;	2d;	2f#;	2a;
=9	=9	=9	=9	=9	=9
ib	4DD	4B-	4d	4g	4g
Vb	4AA	4F#	4d	4d	4a
i	4DD	4G	8d	4g	4b-
.	.	.	8e-	.	.
-VIIb	4CC	4A	8d	4f	4cc
.	.	.	8c	.	.
=10	=10	=10	=10	=10	=10
III	4FF	4B-	8B-	4f	4dd
.	.	.	8d	.	.
viiob/-VII	4BB	8A	8c	4b-	4ee
.	.	8G	8B-	.	.
viiob	4CC#	4A	4c	4a	4ff#
ib	4DD	8B-	8d	8g	4gg
.	.	8c	8e-	8a	.
=11	=11	=11	=11	=11	=11
ic	4DD	4d	4d	8b-	4gg
.	.	.	.	16a	.
.	.	.	.	16g	.
V	4AA	4D	4d	4a	4ff#
I;	2DD;	2G;	2d;	2b;	2gg;
==	==	==	==	==	==
*-	*-	*-	*-	*-	*-
!!chor2scor: -l 2 -s 0.6 -o %b.pmx
!!!YEC: Copyright 2003 by Craig Stuart Sapp
!!!license: GNU General Public License (http://www.gnu.org/copyleft/gpl.html)
!!!SMA: 371 Bach Chorales, edited by Ludwig Erk, C.F. Peters
!!!PDT: 1850, 1865
!!!ONB: Harmony and Root analysis done manually by Craig Sapp
